X: 12925
T: Fiddler O Gord
R: polka
M: 2/4
K: Dmajor
d2 cA|d2 cA|B2 d2|c/d/e d2:|
d2 f2|a/f/a/f/ d2|dg/a/ bg|bg e2|
d2 f2|a/f/a/f/ d2|A2 Bd|c/d/e d2||

